X: 28282
T: Mrs. McQueen's
R: polka
M: 2/4
K: Ddorian
|:D>E FA|D>E FA|cA GE|DE C2|
D>E FA|D>E FA|cA GE|1 D2 DC:|2 D2 D2||
|:d>c Ad|Ad/c/ Ad|cA GE|DE C2|
d>c Ad|Ad/c/ Ad|cA GE|1 D2 D2:|2 D2 DC||

